svg/advertising.svg

<svg xmlns="http://www.w3.org/2000/svg" viewBox="0 0 32 32" enable-background="new 0 0 32 32"><path d="M 30 4.65625 L 28.71875 5.03125 L 5.8125 12 L 3 12 L 2 12 L 2 13 L 2 19 L 2 20 L 3 20 L 5.8125 20 L 7.78125 20.59375 L 7.75 20.6875 L 7.75 20.71875 C 7.1079958 22.831899 8.2967012 25.179177 10.5 25.84375 C 10.5092 25.84655 10.522 25.84105 10.53125 25.84375 C 12.653271 26.488523 15.003004 25.314785 15.65625 23.09375 L 15.6875 23 L 28.71875 26.96875 L 30 27.34375 L 30 26 L 30 6 L 30 4.65625 z M 28 7.34375 L 28 24.65625 L 6.28125 18.03125 L 6.15625 18 L 6 18 L 4 18 L 4 14 L 6 14 L 6.15625 14 L 6.28125 13.96875 L 28 7.34375 z M 9.6875 21.1875 L 13.78125 22.40625 L 13.75 22.5 L 13.75 22.53125 C 13.40636 23.699627 12.163861 24.27191 11.09375 23.9375 C 9.9253729 23.59386 9.3218404 22.382611 9.65625 21.3125 L 9.65625 21.28125 L 9.6875 21.1875 z" color="#000" overflow="visible" enable-background="accumulate"/></svg>

<svg xmlns="http://www.w3.org/2000/svg" viewBox="0 0 32 32"><path style="text-indent:0;text-align:start;line-height:normal;text-transform:none;block-progression:tb;-inkscape-font-specification:Bitstream Vera Sans" d="M30 4.656l-1.28.375L5.812 12H2v8h3.813l1.968.594-.03.093v.032c-.642 2.112.547 4.46 2.75 5.124.01.003.022-.003.03 0 2.123.645 4.473-.53 5.126-2.75l.03-.094 13.033 3.97 1.28.374V4.656zm-2 2.688v17.312L6.28 18.03 6.157 18H4v-4h2.156l.125-.03L28 7.343zM9.687 21.187l4.094 1.22-.03.093v.03c-.344 1.17-1.586 1.742-2.656 1.407-1.17-.343-1.772-1.554-1.438-2.625v-.03l.03-.095z" color="#000" overflow="visible" font-family="Bitstream Vera Sans"/></svg>
